svgs/sharp-regular/share.svg

<svg xmlns="http://www.w3.org/2000/svg" viewBox="0 0 512 512"><!--! Font Awesome Pro 6.6.0 by @fontawesome - https://fontawesome.com License - https://fontawesome.com/license (Commercial License) Copyright 2024 Fonticons, Inc. --><path d="M50.3 427c35.8 37.4 77.7 53 77.7 53s-30.1-30.1-31.9-75.7c-.1-1.4-.1-2.8-.1-4.3c0-61.9 50.1-112 112-112l32 0 48 0 0 48 0 12.2 0 .9 0 34.9 32 0 16-14.7L476.5 240.6 512 208l-35.5-32.6L336 46.7 320 32l-32 0 0 34.9 0 .9L288 80l0 48-48 0-64 0C78.8 128 0 206.8 0 304c0 54.8 23.5 95 50.3 123zm5.8-77.6C51.1 336 48 321 48 304c0-70.7 57.3-128 128-128l112 0 48 0 0-48 0-16.2L441 208 336 304.2l0-16.2 0-48-48 0-80 0c-70.7 0-130.6 45.8-151.8 109.4z"/></svg>

<svg xmlns="http://www.w3.org/2000/svg" viewBox="0 0 512 512"><!--! Font Awesome Pro 6.4.2 by @fontawesome - https://fontawesome.com License - https://fontawesome.com/license (Commercial License) Copyright 2023 Fonticons, Inc. --><path d="M50.3 427c35.8 37.4 77.7 53 77.7 53s-30.1-30.1-31.9-75.7c-.1-1.4-.1-2.8-.1-4.3c0-61.9 50.1-112 112-112h32 48v48 12.2 .9V384h32l16-14.7L476.5 240.6 512 208l-35.5-32.6L336 46.7 320 32H288V66.9v.9V80v48H240 176C78.8 128 0 206.8 0 304c0 54.8 23.5 95 50.3 123zm5.8-77.6C51.1 336 48 321 48 304c0-70.7 57.3-128 128-128H288h48V128 111.8L441 208 336 304.2V288 240H288 208c-70.7 0-130.6 45.8-151.8 109.4z"/></svg>
